!!!COM: Nenna, Pomponio
!!!CDT:
!!!PTL: Il primo libro de madrigali a quattro voci
!!!PPP: Naples
!!!PPR: Gargano
!!!PDT: 1613
!!!PUB-format:
!!!RISM: N 398
!!!rime: 166
!!!OTL: Se taccio, il duol s'avanza
!!!AGN:	Madrigal
!!!SCT: Trm0166k
!!!SCA: Trm0166k
!!!original-voices: 4+bc
!!!extant-voices: 4+bc
!!!complete: Y
!!!final: A
**kern	**fb	**kern	**text	**kern	**text	**kern	**text	**kern	**text
*part5	*	*part4	*part4	*part3	*part3	*part2	*part2	*part1	*part1
*staff5	*staff5	*staff4	*staff4	*staff3	*staff3	*staff2	*staff2	*staff1	*staff1
*I"Basso Continuo	*	*I"Basso	*	*I"Tenore	*	*I"Alto	*	*I"Canto	*
*I'BC	*	*I'B	*	*I'T	*	*I'A	*	*I'C	*
*oclefF4	*	*oclefF4	*	*oclefC4	*	*oclefC3	*	*oclefC1	*
*clefF4	*	*clefF4	*	*clefGv2	*	*clefG2	*	*clefG2	*
*k[]	*	*k[]	*	*k[]	*	*k[]	*	*k[]	*
*omet(C)	*	*omet(C)	*	*omet(C)	*	*omet(C)	*	*omet(C)	*
*M4/2	*	*M4/2	*	*M4/2	*	*M4/2	*	*M4/2	*
*	*	*	*	*	*	*	*	*	*
=1	=1	=1	=1	=1	=1	=1	=1	=1	=1
1A	.	1A	S'io	1.e	S'io	1.a	S'io	1.cc	S'io
[1AA	.	[1AA	tac-	.	.	.	.	.	.
.	#	.	.	[2A	tac-	[2c#X	tac-	[2e	tac-
=2	=2	=2	=2	=2	=2	=2	=2	=2	=2
2AA]	.	2AA]	.	2A]	.	2c#]	.	2e]	.
2AA	.	2AA	-cio,	2A	-cio,	2c#X	-cio,	2e	-cio,
2r	.	1r	.	2r	.	1r	.	1r	.
2E	.	.	.	2E	il	.	.	.	.
=3	=3	=3	=3	=3	=3	=3	=3	=3	=3
2F	.	2r	.	2F	duol	0r	.	0r	.
2AA	#6	2AA	il	2F#X	s'a-	.	.	.	.
2BB-X	6	2BB-X	duol	(<2G	-van-	.	.	.	.
2BBnX	#6	2BBnX	s'a-	2G#X)	.	.	.	.	.
=4	=4	=4	=4	=4	=4	=4	=4	=4	=4
2C	.	(<2C	-van-	1A	-za;	1e	il	1r	.
2C#X	6	2C#X)	.	.	.	.	.	.	.
2D	-	1D	-za;	2r	.	2f	duol	1a	il
2D	#	.	.	4r	.	2f#X	s'a-	.	.
.	.	.	.	4D	S'io	.	.	.	.
=5	=5	=5	=5	=5	=5	=5	=5	=5	=5
2G	-	2r	.	2G	par-	(<2g	-van-	2b-X	duol
2E	#	4r	.	2E	-lo,	2g#X)	.	2bnX	s'a-
.	.	4E	S'io	.	.	.	.	.	.
2A	-	1A	par-	4r	.	1a	-za;	(>2cc	-van-
.	.	.	.	4e	ac-	.	.	.	.
2A	#	.	.	4e	-cre-	.	.	2cc#X)	.
.	.	.	.	4e	-sco	.	.	.	.
=6	=6	=6	=6	=6	=6	=6	=6	=6	=6
2D	.	2D	-lo,	8dL	l'i-	2f	S'io	4dd	-za;
.	.	.	.	8c	.	.	.	.	.
.	.	.	.	8d	.	.	.	4a	S'io
.	.	.	.	8eJ	.	.	.	.	.
2D	.	2r	.	8fL	.	1a	par-	2dd	par-
.	.	.	.	8e	.	.	.	.	.
.	.	.	.	8f	.	.	.	.	.
.	.	.	.	8dJ	.	.	.	.	.
1E	4	4r	.	1e	.	.	.	1b	-lo,
.	.	4E	ac-	.	.	.	.	.	.
.	#3	4E	-cre-	.	.	2g#X	-lo,	.	.
.	.	4E	-sco	.	.	.	.	.	.
=7	=7	=7	=7	=7	=7	=7	=7	=7	=7
4.F	.	8FL	l'i-	4A	-ra,	4r	.	4r	.
.	.	8E	.	.	.	.	.	.	.
.	.	8F	.	4c	ac-	4f	ac-	4a	ac-
8G	.	8GJ	.	.	.	.	.	.	.
4.A	.	8AL	.	4c	-cre-	4f	-cre-	4a	-cre-
.	.	8G	.	.	.	.	.	.	.
.	.	8A	.	4c	-sco	4f	-sco	4a	-sco
8F	.	8FJ	.	.	.	.	.	.	.
1G	.	1G	.	8BL	l'i-	8dL	l'i-	8gL	l'i-
.	.	.	.	8A	.	8c	.	8f	.
.	.	.	.	8B	.	8d	.	8g	.
.	.	.	.	8cJ	.	16e	.	8aJ	.
.	.	.	.	.	.	16fJ	.	.	.
.	.	.	.	8dL	.	8gL	.	8bL	.
.	.	.	.	8c	.	8f	.	8a	.
.	.	.	.	8d	.	8g	.	8b	.
.	.	.	.	8BJ	.	8eJ	.	8gJ	.
=8	=8	=8	=8	=8	=8	=8	=8	=8	=8
1D	#3	1D	-ra,	4A	.	4f#X	.	4a	.
.	.	.	.	4G	.	2g	.	8bL	.
.	.	.	.	.	.	.	.	8ccJ	.
.	4	.	.	2A	.	.	.	2dd	.
.	.	.	.	.	.	4f#X	.	.	.
2G	3	2r	.	2G	-ra,	2g	-ra,	2b	-ra,
[2G	.	4r	.	4r	.	2g	Don-	4r	.
.	.	[4G	Don-	[4B	Don-	.	.	[4dd	Don-
=9	=9	=9	=9	=9	=9	=9	=9	=9	=9
4G]	.	4G]	.	4B]	.	2d	-na	4dd]	.
4F	6	4F	-na	4A	-na	.	.	4a	-na
2E	#	2E	bel-	2B	bel-	2e	bel-	2g#X	bel-
2E	.	2E	-la,	2B	-la,	2e	-la,	2g#X	-la,
4r	.	4r	.	4r	.	2g	Don-	4r	.
[4G	.	[4G	Don-	[4B	Don-	.	.	[4dd	Don-
=10	=10	=10	=10	=10	=10	=10	=10	=10	=10
4G]	.	4G]	.	4B]	.	2d	-na	4dd]	.
4F	.	4F	-na	4A	-na	.	.	4a	-na
4E	.	4E	bel-	4B	bel-	4e	bel-	4g#X	bel-
8EL	.	8E	-la e	8B	-la e	8e	-la e	8g#X	-la e
8AJ	.	8A	gen-	8c	gen-	8f#X	gen-	8a	gen-
1G	.	1G	-til,	2d	-til,	1g	-til,	2b	-til,
.	.	.	.	2B	che	.	.	2dd	che
=11	=11	=11	=11	=11	=11	=11	=11	=11	=11
2C	.	2r	.	2c	mi	2e	che	2cc	mi
2BB	.	2BB	che	2d	mar-	1g	mi	1b	mar-
2.C	.	2.C	mi	[1e	-ti-	.	.	.	.
.	.	.	.	.	.	2c	mar-	[2a	-ti-
4D	.	4D	mar-	.	.	.	.	.	.
=12	=12	=12	=12	=12	=12	=12	=12	=12	=12
1E	#3	1E	-ti-	1e]	.	1B	-ti-	2a]	.
.	4	.	.	.	.	.	.	2g#X	.
2AA	3	2AA	-ra,	2e	-ra,	2c#X	-ra,	2a	-ra,
4r	.	4r	.	2r	.	4r	.	4r	.
[4c	.	[4c	Don-	.	.	[4g	Don-	[4ee	Don-
=13	=13	=13	=13	=13	=13	=13	=13	=13	=13
4c]	.	4c]	.	4c	Don-	4g]	.	4ee]	.
4F	6	4F	-na	4A	-na	4d	-na	4a	-na
2E	#	2E	bel-	2B	bel-	2e	bel-	2g#X	bel-
2E	.	2E	-la,	2B	-la,	2e	-la,	2g#X	-la,
4r	.	4r	.	2r	.	4r	.	4r	.
[4c	.	[4c	Don-	.	.	[4g	Don-	[4ee	Don-
=14	=14	=14	=14	=14	=14	=14	=14	=14	=14
4c]	.	4c]	.	4c	Don-	4g]	.	4ee]	.
4F	6	4F	-na	4A	-na	4d	-na	4a	-na
4E	.	4E	bel-	4B	bel-	4e	bel-	4g#X	bel-
4A	.	8E	-la e	8B	-la e	8e	-la e	8g#X	-la e
.	.	8A	gen-	8c	gen-	8f#X	gen-	8a	gen-
1G	.	1G	-til,	2d	-til,	1g	-til,	2b	-til,
.	.	.	.	2B	che	.	.	2dd	che
=15	=15	=15	=15	=15	=15	=15	=15	=15	=15
2C	.	2r	.	2c	mi	2e	che	2cc	mi
2BB	.	2BB	che	2d	mar-	1g	mi	1b	mar-
2.C	.	2.C	mi	[1e	-ti-	.	.	.	.
.	.	.	.	.	.	2c	mar-	[2a	-ti-
4D	.	4D	mar-	.	.	.	.	.	.
=16	=16	=16	=16	=16	=16	=16	=16	=16	=16
1E	4	1E	-ti-	1e]	.	1B	-ti-	2a]	.
.	#3	.	.	.	.	.	.	2g#X	.
2AA	.	2AA	-ra.	2e	-ra.	2c#X	-ra.	2a	-ra.
4A	.	4A	Ma	4c	Ma	4e	Ma	4a	Ma
4E	.	4E	pur	4B	pur	4e	pur	4g#X	pur
=17	=17	=17	=17	=17	=17	=17	=17	=17	=17
4A	.	4A	pren-	4c	pren-	4e	pren-	4a	pren-
8GL	.	8G	-do	8d	-do	8g	-do	8b	-do
8EJ	.	8E	spe-	8e	spe-	8g	spe-	8cc	spe-
1F	.	1F	-ran-	1c	-ran-	1f	-ran-	1a	-ran-
2F	.	2F	-za	2c	-za	2f	-za	2a	-za
=18	=18	=18	=18	=18	=18	=18	=18	=18	=18
4r	.	4r	.	4r	.	4r	.	4r	.
4C	.	4C	Che	4e	Che	4g	Che	4cc	Che
4F	.	4F	l'hu-	4f	l'hu-	4a	l'hu-	4cc	l'hu-
4G	-	4G	-mil-	4d	-mil-	4g	-mil-	4b-X	-mil-
2AA	#	2AA	-tà,	2A	-tà,	2c#X	-tà,	2e	-tà,
4r	.	4r	.	4r	.	4r	.	4r	.
4C	.	4C	Che	4e	Che	4g	Che	4cc	Che
=19	=19	=19	=19	=19	=19	=19	=19	=19	=19
2F	.	2F	l'hu-	2f	l'hu-	2a	l'hu-	2.cc	l'hu-
2G	-	2G	-mil-	2d	-mil-	2g	-mil-	.	.
.	.	.	.	.	.	.	.	4b-X	-mil-
2.AA	#	2.AA	-tà	2.A	-tà	4c#X	-tà	2.e	-tà
.	.	.	.	.	.	4c#X	vi	.	.
.	.	.	.	.	.	[2d	pie-	.	.
4FF#X	.	4FF#X	vi	4A	vi	.	.	4d	vi
=20	=20	=20	=20	=20	=20	=20	=20	=20	=20
1AA	4	1AA	pie-	1A	pie-	2d]	.	1e	pie-
.	#3	.	.	.	.	2c#X	.	.	.
2D	#	1D	-ghi,	2A	-ghi,	2d	-ghi,	4f#X	-ghi,
.	.	.	.	.	.	.	.	2a	Ché
[2d	#	.	.	4r	.	[2f#X	Ché	.	.
.	.	.	.	[4d	Ché	.	.	8a	nel
.	.	.	.	.	.	.	.	8a	si-
=21	=21	=21	=21	=21	=21	=21	=21	=21	=21
4d]	.	0r	.	4d]	.	4f#]	.	4a	-len-
8dL	.	.	.	8d	nel	8f#X	nel	4a	-tio an-
8dJ	.	.	.	8d	si-	8f#X	si-	.	.
2d	6	.	.	4d	-len-	4f#X	-len-	2b	-cor
.	.	.	.	4d	-tio an-	4f#X	-tio an-	.	.
2e	.	.	.	2e	-cor	2g	-cor	4r	.
.	.	.	.	.	.	.	.	4g	son
4r	.	.	.	4r	.	4r	.	4g	vo-
4c	.	.	.	4c	son	4e	son	4g	-ci e
=22	=22	=22	=22	=22	=22	=22	=22	=22	=22
4c	.	1r	.	4c	vo-	8e	vo-	1a	prie-
.	.	.	.	.	.	8f	-ci e	.	.
4c#X	.	.	.	4c#X	-ci e	2g	prie-	.	.
2d	4	.	.	2d	prie-	.	.	.	.
.	#3	.	.	.	.	4f#X	.	.	.
2G	.	2r	.	2G	-ghi,	4g	-ghi,	1g	-ghi,
.	.	.	.	.	.	2d	Ché	.	.
[2G	.	[2G	Ché	[2B	Ché	.	.	.	.
.	.	.	.	.	.	8d	nel	.	.
.	.	.	.	.	.	8d	si-	.	.
=23	=23	=23	=23	=23	=23	=23	=23	=23	=23
4G]	.	4G]	.	4B]	.	4d	-len-	2r	.
4G	.	8G	nel	8B	nel	4d	-tio an-	.	.
.	.	8G	si-	8B	si-	.	.	.	.
2G	6	4G	-len-	4B	-len-	2e	-cor	4r	.
.	.	4G	-tio an-	4B	-tio an-	.	.	2e	Ché
2A	.	2A	-cor	2c	-cor	4r	.	.	.
.	.	.	.	.	.	4c	son	8e	nel
.	.	.	.	.	.	.	.	8e	si-
4r	.	4r	.	4r	.	4c	vo-	4e	-len-
4F	.	4F	son	4A	son	4c	-ci e	4f	-tio an-
=24	=24	=24	=24	=24	=24	=24	=24	=24	=24
4F	6	4F	vo-	8A	vo-	1d	prie-	2a	-cor
.	.	.	.	8B	-ci e	.	.	.	.
4F#X	.	4F#X	-ci e	2c	prie-	.	.	.	.
2G	4	2G	prie-	.	.	.	.	4r	.
.	3	.	.	4B	.	.	.	4g	son
2C	.	4C	-ghi,	2.c	-ghi,	4e	-ghi,	4g	vo-
.	.	4C	son	.	.	4e	son	4g	-ci e
4C	.	4C	vo-	.	.	8e	vo-	[2a	prie-
.	.	.	.	.	.	8f	-ci e	.	.
4C#X	.	4C#X	-ci e	4e	e	[4g	prie-	.	.
=25	=25	=25	=25	=25	=25	=25	=25	=25	=25
2D	4	2D	prie-	2d	prie-	4g]	.	2a]	.
.	#3	.	.	.	.	4f#X	.	.	.
2GG	.	2GG	-ghi,	4d	-ghi,	2g	-ghi,	2g	-ghi,
.	.	.	.	2B	Ché	.	.	.	.
4r	.	4r	.	.	.	1r	.	4r	.
2E	.	2E	Ché	8B	nel	.	.	2g	Ché
.	.	.	.	8B	si-	.	.	.	.
.	.	.	.	4B	-len-	.	.	.	.
8EL	.	8E	nel	4B	-tio an-	.	.	8g	nel
8EJ	.	8E	si-	.	.	.	.	8g	si-
=26	=26	=26	=26	=26	=26	=26	=26	=26	=26
2E	6	2E	-len-	1c	-cor	2r	.	2g	-len-
2E	.	2E	-tio an-	.	.	2.c	Ché	2g	-tio an-
[1F	.	[1F	-cor	2r	.	.	.	1a	-cor
.	.	.	.	.	.	8c	nel	.	.
.	.	.	.	.	.	8c	si-	.	.
.	.	.	.	2A	son	4c	-len-	.	.
.	.	.	.	.	.	4c	-tio an-	.	.
=27	=27	=27	=27	=27	=27	=27	=27	=27	=27
2F]	6	2F]	.	1.A	vo-	2.d	-cor	2r	.
2D	#	2D	son	.	.	.	.	2f#X	son
.	.	.	.	.	.	4d	son	.	.
2D	.	2D	vo-	.	.	4d	vo-	4f#X	vo-
.	.	.	.	.	.	4e	-ci e	4g	-ci e
2D	.	2D	-ci e	2d	-ci e	2f	prie-	[2a	prie-
=28	=28	=28	=28	=28	=28	=28	=28	=28	=28
1E	4	1E	prie-	1B	prie-	0el	-ghi.	2a]	.
.	#3	.	.	.	.	.	.	2g#X	.
1AAl	.	1AAl	-ghi.	1cl	-ghi.	.	.	1al	-ghi.
==	==	==	==	==	==	==	==	==	==
*-	*-	*-	*-	*-	*-	*-	*-	*-	*-
!!!RDF**kern: > = above
!!!RDF**kern: < = below
!!!RDF**kern: l = terminal long
!!!system-decoration: [(s1)(s2)(s3)(s4)]s5
!!!ENC: Emiliano Ricciardi
!!!END: 2017/11
!!!EED: Deutsch, Catherine
!!!EEV: 2018/07/09
!!!YEC: Copyright 2018 Emiliano Ricciardi, All Rights Reserved
!!!ONB: Translated from MusicXML on 2018/07/09 and edited by Craig Stuart Sapp
!!@@BEGIN:	VERSEDATA
!!@SOLERTI:	166
!!@CATALOGNUM:	Trm0166
!!@LAST_MODIFIED: 2020/07/12
!!@TITLE:		Se taccio, il duol s'avanza
!!@GENRE:		madrigale
!!@MANUSRC:	Ts<sub>2</sub>, V<sub>13/TS2</sub>
!!@PRINTSRC:	11, 12, 13, 22, 23, 26, 31, 35, 69, 93, 141, 145, 166, 169
!!@@BEGIN:	VERSES
!!@ABOUTIT:	Nel medesimo soggetto (i.e., "Dice che la signora Laura desiderando ch'egli celi l'amor suo desidera cosa impossibile." Rime 164-165)
!!@ABOUTEN:	On the same subject (i.e., "He says that lady Laura, in wishing that he hide his love, wishes for something impossible." Rime 164-165)
!!@EDITOR:	Solerti, Angelo
!!@EDITION_TITLE: Le Rime di Torquato Tasso
!!@EDITION_LOC:	Bologna
!!@EDITION_PUB:	Romagnoli-Dall’Acqua
!!@EDITION_DATE:  1898-1902
!!@EDITION_VOL:	2
!!@EDITION_PAGE:  248
!!@TRANSLATOR:	Emiliano Ricciardi and Amyrose McCue Gill
!!@VERSE:
!!	Se taccio, il duol s'avanza;
!!	Se parlo, accresco l'ira,
!!	Donna bella e crudel, che mi martira.
!!	Ma prendo al fin speranza
!!	Che l'umiltà vi pieghi,
!!	Ché nel silenzio ancor son voci e prieghi.
!!	E prego Amor che spieghi
!!	Nel mio doglioso aspetto
!!	Con lettre di pietà l'occulto affetto.
!!@TVERSE:
!!	If I am silent, the pain advances;
!!	If I speak, I increase the anger,
!!	Beautiful and cruel woman who torments me.
!!	But in the end I take hope
!!	That humility might persuade you,
!!	For in my silence there are still words and prayers.
!!	And I beg Love that he display
!!	In my doleful appearance,
!!	With letters of pity, my concealed affection.
!!@@END:		VERSES
!!@OTHER_CRIT_ED:   None
!!@ATTRIBUTION_ABOUT:	Secure
!!		<br>
!!		Among other sources (see Literary Sources), his poem survives—with Tasso's autograph annotations appearing alongside it—in a copy of the edition, <i>Rime et prose del Signor Torquato Tasso. Parte terza. Novamente poste in luce</i>
!!(Venice: Giulio Vasalini, 1583)
!!@DATING:
!!@DEDICATEE:	Peperara, Laura ?
!!@COMMENTARY:
!!@@END:		VERSEDATA
!!@@BEGIN:	SETTING
!!@CATALOGNUM:	Trm0166k
!!@RIMETITLE:	Se taccio, il duol s'avanza
!!@SOLERTI:	166
!!@COMPOSER:	Nenna, Pomponio
!!@PRINCEPSTITLE:	Il primo libro de madrigali a quattro voci
!!@PRINCEPSLOC:	Napoli
!!@NORMLOC:	Naples
!!@NORMPUB:	Gargano
!!@NORMPUBSHORT:	Gargano
!!@PRINCEPSPUB:	Gargano
!!@PRINCEPSYEAR:	1613
!!@PRINCEPSRISM:	N 398
!!@REPRINTS:	1616-13, N399
!!@OVOICES:	4+bc
!!@EXTANTVOICES:	4+bc
!!@PARTBOOKS:	
!!@EXTPARTBOOKS:	
!!@OCLEFS:	C1,C3,C4,F4,F4
!!@OMENSURATION:	C
!!@OKEYSIG:	-
!!@FINAL:	A
!!@TIMPEDITOR:	Deutsch, Catherine
!!@NOTE:		
!!@@END:		SETTING
